src/pos-icons/middleware-outline.svg

<svg height="24" viewBox="0 0 24 24" width="24" xmlns="http://www.w3.org/2000/svg"><path d="m23 12-4-4v3h-3.14c-.45-1.72-2-3-3.86-3s-3.41 1.28-3.86 3h-3.14l-3-3v8l3-3h3.14c.45 1.72 2 3 3.86 3s3.41-1.28 3.86-3h3.14v3zm-11 2c-1.1 0-2-.9-2-2s.9-2 2-2 2 .9 2 2-.9 2-2 2z"/></svg>

<?xml version="1.0" encoding="UTF-8"?><!DOCTYPE svg PUBLIC "-//W3C//DTD SVG 1.1//EN" "http://www.w3.org/Graphics/SVG/1.1/DTD/svg11.dtd"><svg xmlns="http://www.w3.org/2000/svg" xmlns:xlink="http://www.w3.org/1999/xlink" version="1.1" id="mdi-middleware-outline" width="24" height="24" viewBox="0 0 24 24"><path d="M23 12L19 8V11H15.86C15.41 9.28 13.86 8 12 8S8.59 9.28 8.14 11H5L2 8V16L5 13H8.14C8.59 14.72 10.14 16 12 16S15.41 14.72 15.86 13H19V16L23 12M12 14C10.9 14 10 13.1 10 12C10 10.9 10.9 10 12 10S14 10.9 14 12C14 13.1 13.1 14 12 14Z" /></svg>
